icons/envelope-outline.svg

<svg xmlns="http://www.w3.org/2000/svg" width="24" height="24" viewBox="0 0 24 24">
  <path d="M22,16 C22,17.6568542 20.6568542,19 19,19 L19,19 L5,19 C3.34314575,19 2,17.6568542 2,16 L2,16 L2,8 C2,6.34314575 3.34314575,5 5,5 L5,5 L19,5 C20.6568542,5 22,6.34314575 22,8 L21.9998424,7.97305554 C21.9999467,7.9770511 22.000027,7.98104578 22.0000832,7.98503935 Z M20,9.699 L12.4856429,13.8741573 C12.2213732,14.0209738 11.9071708,14.0393259 11.6304179,13.9292135 L11.5143571,13.8741573 L4,9.7 L4,16 C4,16.5128358 4.38604019,16.9355072 4.88337887,16.9932723 L5,17 L19,17 C19.5522847,17 20,16.5522847 20,16 L20,16 L20,9.699 Z M19,7 L5,7 C4.63438587,7 4.3145991,7.19621027 4.14019362,7.48907688 L12,11.855 L19.8598064,7.48907688 C19.6854009,7.19621027 19.3656141,7 19,7 L19,7 Z"/>
</svg>

<svg xmlns="http://www.w3.org/2000/svg" viewBox="0 0 24 24">
  <path d="M22 16a3 3 0 0 1-3 3H5a3 3 0 0 1-3-3V8a3 3 0 0 1 3-3h14a3 3 0 0 1 3 3v-.03V8zm-2-6.3-7.51 4.17a1 1 0 0 1-.86.06l-.12-.06L4 9.7V16a1 1 0 0 0 .88 1H19a1 1 0 0 0 1-1V9.7zM19 7H5a1 1 0 0 0-.86.49L12 11.86l7.86-4.37A1 1 0 0 0 19 7z"/>
</svg>
